X:60
T:J'ai vu le loup, le renard, le lièvre
R:Chanson
O:France
B:Le livre des Chansons (Henri Davenson) n°60
Z:<anamnese@caramail.com> -- http://anamnese.fr.st
M:2/4
L:1/8
Q:1/4=90
K:F
z2 B A/ B/ | G A F G | G G B A/ B/ | G A F G | G2  G A | B B/ B/ B c |!
A2 B B/ B/ | G G A A | F D G A | B B/ B/ B c | A2 B A/ B/ | G A F G | HG4 ||
W:J'ai vu le loup, le renard, le lièvre
W:J'ai vu le loup, le renard cheuler :
W:C'est moi-même qui les ai rebeuillés.
W:J'ai vu le loup, le renard, le lièvre
W:C'est moi-même qui les ai rebeuillés.
W:J'ai vu le loup, le renard cheuler.
W:
W:J'ai ouï le loup, le renard, le lièvre
W:J'ai ouï le loup, le renard, chanter :
W:C'est moi-même qui les ai rechignés.
W: /.../

